X:1
T:James Gibb editions
T:Psalm 119, pt 8 (Becker) - Schütz
%%score [ ( 1 2 ) ( 3 4 ) ]
L:1/8
Q:1/4=98
M:2/2
K:C
V:1 treble nm="Soprano Alto"
V:2 treble 
V:3 bass nm="Tenor Bass"
V:4 bass 
V:1
"^Cornelius Becker\n(1561-1604)""^Heinrich Schütz\n(1585-1672)""^Psalm 119, part 8, SWV 224" c4 | %1
w: ~Die|
w: der|
 G6 A2 | E2 ^F2 ^G4 | A2 E2 G4- | G2 F2 E2 D2 | C4 :|[M:2/2] G4 A2 c2 | B2 A2 A2 ^G2 | %8
w: lie- ben|dein Ge- set-|ze, ste- hen|* in gro- ßem|Fried,|Herr, ich wart|sehn- lich auf dein|
w: Feind stark|an sie set-|zet, den- noch|* sie strau- cheln|nit.|||
 A2 E2 G2 A2 | B2 d2 B4 | A6 A2 | (B3 c d2) e2 | (d2 c4) B2 | c8 |] %14
w: Heil, tu wie du|hast ver- spro-|chen, dein|Gnad * * werd|mir * zu-|teil.|
w: ||||||
V:2
 E4 | E6 C2 | C2 A,2 E4 | E2 C2 E4- | E2 C2 C2 B,2 | C4 :|[M:2/2] E4 E2 E2 | E2 C2 F2 E2 | %8
 E2 B,2 E2 ^F2 | G2 A2 G4 | ^F6 F2 | G6 G2 | A4 G4 | E8 |] %14
V:3
 G,4 | C6 A,2 | G,2 D2 B,4 | A,2 A,2 B,4- | B,2 A,2 G,2 G,2 | G,4 :| %6
[M:2/2]"^84. Mein Seel wird allzeit halten an der gesunden Lehr;\nDein Zeugnis mannigfalte liebet mein Herze sehr.\nIch halt dein Zeugnis und Befehl, vor dir sind meine Wege,\nich hab meins Tuns kein Hehl.\n\n85. Mein Bitt laß vor dich kommen, mein Klag vernimm mit Fleiß,\ndein Wort bringt großen Frommen, drin du mich unterweist.\nMein Flehen vor dich kommen laß, errette mich, schaff Hülfe,\nwie du versprochen hast.\n\n86. Ich will dich lob'n und ehren von Grund meins Herzens rein,\nwenn du mich recht wirst lehren alle die Rechte dein;\nich will stets reden von dein'm Wort, mein Zung dein Wort verkündigt,\nrecht sind all dein Gebot.\n\n88. Laß meine Seele leben, daß sie dich lob und ehr,\ndein rechte Hülf laß geben, ich bin verirret sehr.\nGleich wie ein Schäflein, daß verlorn, deinen Knecht wollst du suchen,\nich hab dein Wort erkorn." C4 C2 A,2 | %7
 ^G,2 A,2 D2 B,2 | A,2 G,2 B,2 D2 | D2 A,2 D4 | D6 D2 | D6 C2 | F4 D4 | C8 |] %14
V:4
 C,4 | C,6 F,2 | C,2 D,2 E,4 | A,,2 A,2 E,4- | E,2 F,2 C,2 G,,2 | C,4 :|[M:2/2] C,4 A,,2 A,,2 | %7
 E,2 F,2 D,2 E,2 | A,,2 E,2 E,2 D,2 | G,2 ^F,2 G,4 | D,6 D,2 | (G,3 A, B,2) C2 | F,4 G,4 | C,8 |] %14

